!!!!SEGMENT: pl-cz--iii-753--001-012_zebrowski-marcin-jozef--vesperae-in-d-magnificat.krn
!!!cenid: 17xx:2383
!!!COM: Żebrowski, Marcin Józef
!!!COM-rismID: pe30020322
!!!CDT: 1702-1770/06/29
!!!CNT: Polish
!!!OPR: Vesperae in D
!!!OTL: Magnificat
!!!OMV: 012
!!!PDT:
!!!AGN:
!!!SMS-siglum: PL-CZ
!!!SMS-shelfmark: III-753
!!!SMS-shelfwork: 001-012 M
!!!SMS-variant:
!!!SMS-altvar:
!!!NIFC-rismSourceID: 300033504
!!!NIFC-rismChildID: 300033505
!!!NIFC-islandoraID: pl-cz:25492
!!!URL-pdf-islandora: https://repozytorium.nifc.pl/islandora/object/pl-cz%3A25492/datastream/PDF/view
!!!URL-scan: https://polish.musicsources.pl/pl/lokalizacje/galeria/rekopisy/1484 @EN{Scan on Polish Music Sources Website} @PL{Skany w portalu Dziedzictwo Muzyki Polskiej w otwartym dostępie}
!!!ONB-nifc: UWAGA: części Nieszporów: 1. Dixit Dominus, 2. Confitebor, 3. Beatus vir, 4. Laudate pueri, 5. Laudate Dominum, 6. Credidi, 7. In convertendo, 8. Domine probasti me, 9. Laetatus sum, 10. Nisi Dominus, 11. Lauda Jerusalem, 12. Magnificat, 13. Quia respexit, 14. Deposuit potentes, 15. Gloria patri
!!!AIN: 1 alto 1 bass 2 clrno 1 fagot 1 organ 1 soprn 1 tenor 2 violn
!!!OMD:
!!!OMD-mod: Grave
!!!key: D
**kern	**fba	**kern	**kern	**kern	**kern	**text	**kern	**text	**kern	**text	**kern	**text	**kern	**kern
*group4	*	*group4	*group3	*group3	*group2	*	*group2	*	*group2	*	*group2	*	*group1	*group1
*part10	*part10	*part9	*part8	*part7	*part6	*part6	*part5	*part5	*part4	*part4	*part3	*part3	*part2	*part1
*staff10	*	*staff9	*staff8	*staff7	*staff6	*staff6	*staff5	*staff5	*staff4	*staff4	*staff3	*staff3	*staff2	*staff1
*I"Organo.	*	*I"Baſsone.	*I"Violino Secondo.	*I"Violino Primo.	*I"Baſso.	*	*I"Tenore.	*	*I"Alto.	*	*I"Canto.	*	*I"Clarino Secondo ex D.	*I"Clarino Primo ex D
*mI"Organo	*	*mI"Fagotto	*mI"Violino II	*mI"Violino I	*mI"Basso	*	*mI"Tenore	*	*mI"Alto	*	*mI"Soprano	*	*mI"Clarino II in D	*mI"Clarino I in D
*I'org	*	*I'fag	*I'vl 2	*I'vl 1	*I'B	*	*I'T	*	*I'A	*	*I'S	*	*I'clno 2 in D	*I'clno 1 in D
*Iorgan	*	*Ifagot	*Ivioln	*Ivioln	*Ibass	*	*Itenor	*	*Ialto	*	*Isoprn	*	*Iclrno	*Iclrno
*ICklav	*	*ICww	*ICstr	*ICstr	*ICvox	*	*ICvox	*	*ICvox	*	*ICvox	*	*ICbras	*ICbras
*clefF4	*	*clefF4	*clefG2	*clefG2	*clefF4	*	*clefC4	*	*clefC3	*	*clefC1	*	*clefG2	*clefG2
*	*	*	*	*	*	*	*mclefGv2	*	*mclefG2	*	*mclefG2	*	*	*
*	*	*	*	*	*	*	*	*	*	*	*	*	*ITrd-1c-2	*ITrd-1c-2
*k[f#c#]	*	*k[f#c#]	*k[f#c#]	*k[f#c#]	*k[f#c#]	*	*k[c#f#]	*	*k[f#c#]	*	*k[f#c#]	*	*k[f#c#]	*k[f#c#]
*	*	*	*	*	*	*	*mk[f#c#]	*	*	*	*	*	*	*
*D:	*	*D:	*D:	*D:	*D:	*	*D:	*	*D:	*	*D:	*	*D:	*D:
*M3/4	*	*M3/4	*M3/4	*M3/4	*M3/4	*	*M3/4	*	*M3/4	*	*M3/4	*	*M3/4	*M3/4
=	=	=	=	=	=	=	=	=	=	=	=	=	=	=
!LO:TX:b:Bi:t=Grave.:mod=	!	!LO:TX:a:Bi:t=Grave Tutti:mod=	!LO:TX:b:Bi:t=Grave.:mod=	!LO:TX:b:i:t=Grave.:mod=	!LO:TX:a:i:t=Grave.:mod=	!	!LO:TX:a:Bi:t=Grave:mod=	!	!LO:TX:a:Bi:t=Grave.:mod=	!	!LO:TX:a:Bi:t=Grave.:mod=	!	!LO:TX:b:Bi:t=Grave.:mod=	!LO:TX:b:Bi:t=Grave.:mod=
4d\	.	4d\	4ff#\	4aa\	4d\	Ma-	4d\	Ma-	4a\	Ma-	4ff#\	Ma-	4ff#\	4aa\
=1	=1	=1	=1	=1	=1	=1	=1	=1	=1	=1	=1	=1	=1	=1
*2\right	*	*2\right	*	*	*	*	*	*	*	*	*	*	*	*
2d\	.	2d\	4.ff#\	4.aa\	4.d\	-gni-	4.d\	-gni-	4.a\	-gni-	4.ff#\	-gni-	4.ff#\	4.aa\
.	.	.	8ff#\	8aa\	8d\	-fi-	8d\	-fi-	8a\	-fi-	8ff#\	-fi-	8ff#\	8aa\
4D/	.	4D/	4ff#\	4aa\	4d\	-cat	4d\	-cat	4a\	-cat	4ff#\	-cat	4ff#\	4aa\
=2	=2	=2	=2	=2	=2	=2	=2	=2	=2	=2	=2	=2	=2	=2
4r	.	4r	4r	4r	4r	.	4r	.	4r	.	4r	.	4r	4r
4r	.	4r	4r	4r	4r	.	4r	.	4r	.	4r	.	4r	4r
*	*	*	*	*	*	*ij	*	*ij	*	*ij	*	*ij	*	*
4B\	5	4B\	4dd\	4ff#\	4B\	Ma-	4B\	Ma-	4f#\	Ma-	4dd\	Ma-	4dd\	4ff#\
=3	=3	=3	=3	=3	=3	=3	=3	=3	=3	=3	=3	=3	=3	=3
2B\	.	2B\	4.dd\	4.ff#\	4.B\	-gni-	4.B\	-gni-	4.f#\	-gni-	4.dd\	-gni-	4.dd\	4.ff#\
.	.	.	8dd\	8ff#\	8B\	-fi-	8B\	-fi-	8f#\	-fi-	8dd\	-fi-	8dd\	8ff#\
4BB/	.	4BB/	4dd\	4ff#\	4B\	-cat	4B\	-cat	4f#\	-cat	4dd\	-cat	4dd\	4ff#\
!LO:MO:mod=*null:null	!	!LO:MO:mod=*null:null	!	!	!	!	!	!	!	!	!	!	!	!
*clefC4	*	*clefC4	*	*	*	*Xij	*	*Xij	*	*Xij	*	*Xij	*	*
!	!	!	!LO:LB:g=original	!	!	!	!	!	!	!	!	!	!	!
=4	=4	=4	=4	=4	=4	=4	=4	=4	=4	=4	=4	=4	=4	=4
!	!	!	!LO:TX:a:t=2.:mod=	!LO:TX:a:t=2.:mod=	!LO:TX:a:t=2.:mod=	!	!	!	!	!	!	!	!LO:TX:a:t=2.:mod=	!LO:TX:a:t=2.:mod=
8G/L	.	8G/L	1.r	1.r	1.r	.	8G/L	a-	4r	.	4r	.	1.r	1.r
8F#/	.	8F#/	.	.	.	.	8F#/J	.	.	.	.	.	.	.
8G/	.	8G/	.	.	.	.	8G/L	.	4g\	a-	4b\	a-	.	.
8A/	.	8A/	.	.	.	.	8A/J	.	.	.	.	.	.	.
8B/	6	8B/	.	.	.	.	8B\	-ni-	8g\	-ni-	8b\	-ni-	.	.
8c#/J	.	8c#/J	.	.	.	.	8c#\	-ma	8g\	-ma	8b\	-ma	.	.
!	!	!	!	!	!	!	!	!	!	!	!LO:LB:g=original	!	!	!
=5	=5	=5	=5	=5	=5	=5	=5	=5	=5	=5	=5	=5	=5	=5
*	*	*	*	*	*	*	*2\right	*	*2\right	*	*2\right	*	*	*
2d\	6 4	2d\	.	.	.	.	2d\	me-	2g\	me-	2b\	me-	.	.
4d\	5 3	4d\	.	.	.	.	4d\	-a	4f#\	-a	4a\	-a	.	.
!LO:LB:g=original	!	!	!	!	!LO:LB:g=original	!	!	!	!	!	!	!	!	!
=6	=6	=6	=6	=6	=6	=6	=6	=6	=6	=6	=6	=6	=6	=6
!LO:MO:mod=*null:null	!	!LO:MO:mod=*null:null	!	!	!	!	!	!	!	!	!	!	!	!
*clefF4	*	*clefF4	*	*	*	*	*	*	*	*	*	*	*	*2\right
8D\L	.	8D\L	4ff#\	4ddd\	8D/L	a-	4d\	a-	4a\	a-	4ff#\	a-	4r	[2.aa\
8C#\	.	8C#\	.	.	8C#/J	.	.	.	.	.	.	.	.	.
8D\	.	8D\	4ff#\	4ddd\	8D/L	.	4d\	-ni-	4a\	-ni-	4ff#\	-ni-	8a/L	.
8E\	.	8E\	.	.	8E/J	.	.	.	.	.	.	.	8a/	.
8F#\	6	8F#\	4ff#\	4ddd\	8F#\	-ni-	4d\	-ma	4a\	-ma	4ff#\	-ma	8a/	.
8G#X\J	.	8G#X\J	.	.	8G#X\	-ma	.	.	.	.	.	.	8a/J	.
!	!	!LO:LB:g=original	!	!	!	!	!	!	!LO:LB:g=original	!	!	!	!	!
=7	=7	=7	=7	=7	=7	=7	=7	=7	=7	=7	=7	=7	=7	=7
*	*	*	*2\right	*2\right	*2\right	*	*	*	*	*	*	*	*	*
8A\L	6 4	8A\L	2ff#\	2ddd\	2A\	me-	2d\	me-	2a\	me-	2ff#\	me-	4a/	2.aa\_
8G#X\	.	8G#X\	.	.	.	.	.	.	.	.	.	.	.	.
8A\	.	8A\	.	.	.	.	.	.	.	.	.	.	4a/	.
8B\	.	8B\	.	.	.	.	.	.	.	.	.	.	.	.
8c#\	6	8c#\	4ee\	4ccc#\	4A\	-a	4c#\	-a	4a\	-a	4ee\	-a	4a/	.
8A\J	.	8A\J	.	.	.	.	.	.	.	.	.	.	.	.
=8	=8	=8	=8	=8	=8	=8	=8	=8	=8	=8	=8	=8	=8	=8
2.B\	7	2.B\	2dd\	8.ff#\L	2B\	Do-	2d\	Do-	4a\	Do-	2dd\	Do-	4r	4aa\]
.	.	.	.	16bb\Jk	.	.	.	.	.	.	.	.	.	.
.	6\	.	.	2gg#X\	.	.	.	.	4.g#X\	.	.	.	4ee\	2gg#Xt\
.	.	.	4dd\	.	4B\	-mi-	4d\	-mi-	.	.	4dd\	-mi-	4ee\	.
.	.	.	.	.	.	.	.	.	8g#\	-mi-	.	.	.	.
=9	=9	=9	=9	=9	=9	=9	=9	=9	=9	=9	=9	=9	=9	=9
*	*	*	*	*	*	*	*	*	*	*	*	*	*2\right	*
!	!	!	!LO:TX:b:i:t=Volti.:mod=	!	!	!	!	!	!	!	!	!	!	!
2.A\	.	2.A\	2.cc#\	2.aa\	2.A\	-num.	2.e\	-num.	2.a\	-num.	2.cc#\	-num.	2.ee\	2.aa\
!	!	!	!LO:PB:g=original	!LO:LB:g=original	!LO:LB:g=original	!	!LO:LB:g=original	!	!	!	!LO:LB:g=original	!	!LO:LB:g=original	!
=10||	=10||	=10||	=10||	=10||	=10||	=10||	=10||	=10||	=10||	=10||	=10||	=10||	=10||	=10||
!!!tempo-scaling: 200%
!!!OMD:
!!!OMD-mod: Allegro
*M2/4	*	*M2/4	*M2/4	*M2/4	*M2/4	*	*M2/4	*	*M2/4	*	*M2/4	*	*M2/4	*M2/4
!LO:TX:b:i:t=tutti.:mod=	!	!	!LO:TX:a:t=2.:mod=	!	!LO:TX:a:t=6.:mod=	!	!LO:TX:a:t=4.:mod=	!	!	!	!	!	!LO:TX:b:i:t=Allo.:mod=	!
!LO:TX:a:i:t=allo.:mod=	!	!LO:TX:a:Bi:t=Allo. Tutti.:mod=	!LO:TX:b:Bi:t=Allegro.:mod=	!LO:TX:b:i:t=Allo.:mod=	!LO:TX:b:i:t=Allo.:mod=	!	!LO:TX:a:i:t=Allo:mod=	!	!LO:TX:a:t=2.:mod=	!	!LO:TX:b:i:t=Allo.:mod=	!	!LO:TX:a:t=2.:mod=	!LO:TX:b:i:t=Allo.:mod=
4D/	.	4D/	1r	8r	0r	.	0r	.	1r	.	8r	.	1r	8r
.	.	.	.	8d|/L	.	.	.	.	.	.	8d/	Et	.	8d/L
4r	.	4r	.	8f#|/	.	.	.	.	.	.	8f#/	ex-	.	8f#/
!	!	!	!	!	!	!	!	!	!	!	!	!LO:MO:mod=-sul-	!	!
.	.	.	.	8a|/J	.	.	.	.	.	.	8a\	-ul-	.	8a/J
=11	=11	=11	=11	=11	=11	=11	=11	=11	=11	=11	=11	=11	=11	=11
8r	.	8r	.	8dd|\L	.	.	.	.	.	.	8dd\	-ta-	.	4dd\
8D\L	.	8D\L	.	(16dd\L	.	.	.	.	.	.	(16dd\LL	.	.	.
!	!	!	!	!	!	!	!	!	!	!	!LO:SIC:s=16cc#JJ)	!	!	!
.	.	.	.	16cc#\JJ)	.	.	.	.	.	.	16cc#\)	.	.	.
!	!	!	!	!	!	!	!	!	!	!	!LO:SIC:s=(16ddLL	!	!	!
8F#\	6	8F#\	.	(16dd\LL	.	.	.	.	.	.	(16dd\	.	.	4r
.	.	.	.	16cc#\)	.	.	.	.	.	.	16cc#\)	.	.	.
8A\J	.	8A\J	.	(16dd\	.	.	.	.	.	.	(16dd\	.	.	.
.	.	.	.	16cc#\JJ)	.	.	.	.	.	.	16cc#\JJ)	.	.	.
=12	=12	=12	=12	=12	=12	=12	=12	=12	=12	=12	=12	=12	=12	=12
4d\	.	4d\	8r	8dd\L	.	.	.	.	8r	.	8dd\	-vit	8r	8r
!	!	!	!	!	!	!	!	!	!	!LO:MO:mod=Et	!	!	!	!LO:SIC:s=8f#L|
.	.	.	8d|/L	8f#|/	.	.	.	.	8d\	et	8f#/	et	8d|/L	8f#/L
!	!	!	!	!LO:TX:t=P:problem=mixed beam	!	!	!	!	!	!	!	!	!	!LO:SIC:s=8a|
4r	.	4r	8f#|/	8a|/	.	.	.	.	8f#\	ex-	8a\	ex-	8f#|/	8a/
!	!	!	!	!	!	!	!	!	!	!LO:MO:mod=-sul-	!	!LO:MO:mod=-sul-	!	!LO:SIC:s=8ddJ|
.	.	.	8a|/J	8dd|/J	.	.	.	.	8a\	-ul-	8dd\	-ul-	8a|/J	8dd/J
!	!	!	!	!	!	!	!	!	!	!	!	!	!	!LO:LB:g=original
=13	=13	=13	=13	=13	=13	=13	=13	=13	=13	=13	=13	=13	=13	=13
8r	.	8r	8dd|\L	8ff#|\L	.	.	.	.	8dd\	-ta-	8ff#\	-ta-	4dd\	4ff#\
8D\L	.	8D\L	(16dd\L	(16ff#\L	.	.	.	.	(16dd\LL	.	(16ff#\LL	.	.	.
!	!	!	!	!	!	!	!	!	!	!	!LO:SIC:s=16eeJJ)	!	!	!
.	.	.	16cc#\JJ)	16ee\JJ)	.	.	.	.	16cc#\JJ)	.	16ee\)	.	.	.
!	!	!	!	!	!	!	!	!	!	!	!LO:SIC:s=(16ff#LL	!	!	!
8F#\	6	8F#\	(16dd\LL	(16ff#\LL	.	.	.	.	(16dd\LL	.	(16ff#\	.	4r	4r
.	.	.	16cc#\)	16ee\)	.	.	.	.	16cc#\)	.	16ee\)	.	.	.
8A\J	.	8A\J	(16dd\	(16ff#\	.	.	.	.	(16dd\	.	(16ff#\	.	.	.
.	.	.	16cc#\JJ)	16ee\JJ)	.	.	.	.	16cc#\JJ)	.	16ee\JJ)	.	.	.
=14	=14	=14	=14	=14	=14	=14	=14	=14	=14	=14	=14	=14	=14	=14
4d\	.	4d\	8dd\L	8ff#\L	1r	.	8r	.	8dd\	-vit	8ff#\	-vit	8r	8r
!	!	!	!	!	!	!	!	!	!	!	!	!	!	!LO:SIC:s=8aL|
.	.	.	8f#|\	8a|\	.	.	8D/	Et	8f#\	et	8a\	et	8f#|/L	8a/L
!	!	!	!	!LO:SIC:v:s=8dd|	!	!	!	!	!	!	!LO:LB:g=original	!	!LO:SIC:v:s=8a|	!LO:SIC:s=8dd|
4r	.	4r	8a|\	8cc#|\	.	.	8F#/	ex-	8f#\	ex-	8a\	ex-	8b|/	8dd/
!	!	!	!	!	!	!	!	!LO:MO:mod=-sul-	!	!LO:MO:mod=-sul-	!	!LO:MO:mod=-sul-	!	!LO:SIC:s=8ff#J|
.	.	.	8dd|\J	8ff#|\J	.	.	8A/	-ul-	8f#\	-ul-	8a\	-ul-	8dd|/J	8ff#/J
!LO:LB:g=original	!	!	!	!	!	!	!	!	!	!	!	!	!	!
=15	=15	=15	=15	=15	=15	=15	=15	=15	=15	=15	=15	=15	=15	=15
4d\	.	4d\	8ff#|\L	8aa\	.	.	8d\	-ta-	2f#\	-ta-	2a\	-ta-	4ff#\	4aa\
.	.	.	(16ff#\L	4aa\	.	.	(16d\LL	.	.	.	.	.	.	.
.	.	.	16ee\JJ)	.	.	.	16c#\JJ)	.	.	.	.	.	.	.
4r	.	4r	(16ff#\LL	.	.	.	(16d\LL	.	.	.	.	.	4r	4r
.	.	.	16ee\)	.	.	.	16c#\)	.	.	.	.	.	.	.
.	.	.	(16ff#\	[8aa\	.	.	(16d\	.	.	.	.	.	.	.
.	.	.	16ee\JJ)	.	.	.	16c#\JJ)	.	.	.	.	.	.	.
!	!	!	!	!	!	!	!	!	!LO:LB:g=original	!	!	!	!	!
=16	=16	=16	=16	=16	=16	=16	=16	=16	=16	=16	=16	=16	=16	=16
8r	.	8r	8ff#\L	8aa\]	8r	.	8d\	-vit	8f#\	-vit	8a\	-vit	8r	8r
8D\L	.	8D\L	8a|\	4ddd\	8D/	Et	8F#/	et	8a\	et	8dd\	et	8dd\	8ff#\
8F#\	6	8F#\	8dd|\	.	8F#\	ex-	8A/	ex-	8a\	ex-	8dd\	ex-	4dd\	4ff#\
!	!	!	!	!	!	!LO:MO:mod=-sul-	!	!LO:MO:mod=-sul-	!	!LO:MO:mod=-sul-	!	!LO:MO:mod=-sul-	!	!
8A\J	6 4	8A\J	8ff#|\J	[8ddd\	8A\	-ul-	8d\	-ul-	8a\	-ul-	8dd\	-ul-	.	.
!	!	!LO:LB:g=original	!	!	!	!	!	!	!	!	!	!	!	!
=17	=17	=17	=17	=17	=17	=17	=17	=17	=17	=17	=17	=17	=17	=17
*	*	*	*	*	*	*	*	*	*2\left	*	*	*	*	*
8d|\L	.	8d|\L	8aa\	8ddd\]	8d\	-ta-	8f#\	-ta-	2a\	-ta-	[2dd\	-ta-	8r	8r
(16d\L	.	(16d\L	4aa\	4ddd\	(16d\LL	.	(16f#\LL	.	.	.	.	.	8dd\	8ff#\
16c#\JJ)	.	16c#\JJ)	.	.	16c#\JJ)	.	16e\JJ)	.	.	.	.	.	.	.
(16d\LL	.	(16d\LL	.	.	(16d\LL	.	(16f#\LL	.	.	.	.	.	4dd\	4ff#\
16c#\)	.	16c#\)	.	.	16c#\)	.	16e\)	.	.	.	.	.	.	.
(16d\	.	(16d\	[8aa\	[8ddd\	(16d\	.	(16f#\	.	.	.	.	.	.	.
16c#\JJ)	.	16c#\JJ)	.	.	16c#\JJ)	.	16e\JJ)	.	.	.	.	.	.	.
=18	=18	=18	=18	=18	=18	=18	=18	=18	=18	=18	=18	=18	=18	=18
8d|\L	.	8d|\L	8aa\L]	8ddd\L]	8d\	.	8f#\	.	4a\	vit	8dd\]	.	8r	8r
8A|\	.	8A|\	8aa|\	8aa|\	8A\	-vit	8A/	-vit	.	.	8a\	-vit	8a|/L	8a|/L
!	!	!	!	!	!	!LO:MO:mod=spi-	!	!LO:MO:mod=spi-	!	!LO:MO:mod=spi-	!	!LO:MO:mod=spi-	!	!
8F#|\	.	8F#|\	8ff#|\	8ff#|\	16F#\	Spi-	16F#/	Spi-	16f#\	Spi-	16f#/	Spi-	8f#|/	8f#|/
.	.	.	.	.	16F#\	-ri-	16F#/	-ri-	16f#\	-ri-	16f#/	-ri-	.	.
8D|\J	.	8D|\J	8dd|\J	8dd|\J	8D/	-tus	8D/	-tus	8d\	-tus	8d/	-tus	8d|/J	8d|/J
!	!	!	!	!	!LO:LB:g=original	!	!	!	!	!	!	!	!	!
=19	=19	=19	=19	=19	=19	=19	=19	=19	=19	=19	=19	=19	=19	=19
!	!	!	!LO:TX:t=P:problem=mixed beam	!LO:TX:t=P:problem=mixed beam	!	!	!	!	!	!	!	!	!	!
8r	.	8r	(16gg#X\LL	(16gg#X\LL	8A\	me-	8A/	me-	8a\	me-	8a\	me-	8a/L	8a/L
.	.	.	16aa\J)	16aa\J)	.	.	.	.	.	.	.	.	.	.
!LO:TX:t=P:problem=mixed beam	!	!LO:TX:t=P:problem=mixed beam	!	!	!	!	!	!	!	!	!	!	!	!
8A\L	.	8A\L	8a|/J	8a|/J	8AA/	-us	8A/	-us	8A/	-us	8a\	-us	8a/J	8a/J
8AA/	.	8AA/	4r	4r	4r	.	4r	.	4r	.	4r	.	4r	4r
8G\J	2	8G\J	.	.	.	.	.	.	.	.	.	.	.	.
!	!	!	!	!LO:LB:g=original	!	!	!LO:LB:g=original	!	!	!	!	!	!	!
=20	=20	=20	=20	=20	=20	=20	=20	=20	=20	=20	=20	=20	=20	=20
!	!	!	!	!	!LO:TX:a:t=1.:mod=	!	!	!	!	!	!	!	!LO:TX:a:t=1.:mod=	!LO:TX:a:t=1.:mod=
4F#\	6	4F#\	4r	8r	2r	.	4r	.	4r	.	8r	.	2r	2r
.	.	.	.	8d|/L	.	.	.	.	.	.	8d/	et	.	.
4r	.	4r	8d|/L	8f#|/	.	.	8r	.	(8d\L	et	8f#/	ex-	.	.
!	!	!	!	!	!	!	!	!	!	!	!	!LO:MO:mod=-sul-	!	!
.	.	.	8f#|/J	8a|/J	.	.	8d\	-et	8f#\J)	.	8a\	-ul-	.	.
!	!	!	!	!	!	!	!	!	!	!	!LO:LB:g=original	!	!	!
=21	=21	=21	=21	=21	=21	=21	=21	=21	=21	=21	=21	=21	=21	=21
8r	.	8r	8a|/L	8ccn|\L	8r	.	4.d\	ex-	4.a\	ex-	4ccn\	-ta-	8r	8r
8D\L	n7r	8D\L	(16a/L	(16cc\L	8D/	et	.	.	.	.	.	.	16d/LL	16d/LL
.	.	.	16g/JJ)	16b\JJ)	.	.	.	.	.	.	.	.	16d/JJ	16d/JJ
8F#\	.	8F#\	(16a/LL	(16cc\LL	8F#\	ex-	.	.	.	.	4cc\	-vit	8d/L	8d/L
.	.	.	16g/)	16b\)	.	.	.	.	.	.	.	.	.	.
!	!	!	!	!	!	!LO:MO:mod=-sul-	!	!LO:MO:mod=-sul-	!	!LO:MO:mod=-sul-	!	!	!	!
8A\J	.	8A\J	(16a/	(16cc\	8A\	-ul-	8d\	-ul-	8a\	-ul-	.	.	8d/J	8d/J
.	.	.	16g/JJ)	16b\JJ)	.	.	.	.	.	.	.	.	.	.
!	!	!	!LO:LB:g=original	!	!	!	!	!	!	!	!	!	!	!
=22	=22	=22	=22	=22	=22	=22	=22	=22	=22	=22	=22	=22	=22	=22
!	!	!	!	!LO:TX:t=P:problem=mixed beam	!	!	!	!	!	!	!	!LO:MO:mod=spi-	!	!
8cn\L	2	8cn\L	8a/	(16d/LL	4cn\	-ta-	8d\	-ta-	8a\	-ta-	8.ccn\	Spi-	4d/	4d/
.	.	.	.	16ccn\	.	.	.	.	.	.	.	.	.	.
8F#\	.	8F#\	4ccn\	16aa\)	.	.	8d\	vit	8a\	vit	.	.	.	.
.	.	.	.	16gg|\JJ	.	.	.	.	.	.	16cc\	-ri-	.	.
!	!	!	!	!	!	!	!	!LO:MO:mod=spi-	!	!LO:MO:mod=spi-	!	!	!	!
8D\	n7r	8D\	.	16ff#\LL	4F#\	vit	16d\	Spi-	16a\	Spi-	4cc\	-tus	4d/	4d/
.	.	.	.	16ee\	.	.	16d\	-ri-	16a\	-ri-	.	.	.	.
8F#\J	.	8F#\J	16b/LL	16dd\	.	.	8d\	-tus	8a\	-tus	.	.	.	.
.	.	.	16a/JJ	16ccn\JJ	.	.	.	.	.	.	.	.	.	.
!	!	!	!	!	!	!	!	!	!LO:LB:g=original	!	!	!	!LO:LB:g=original	!
=23	=23	=23	=23	=23	=23	=23	=23	=23	=23	=23	=23	=23	=23	=23
!	!	!	!	!LO:SIC:v:s=(16ccn\LL	!	!LO:MO:mod=spi-	!	!	!	!	!	!	!	!
8r	9 n4r	8r	(16a/LL	(16cc#\LL	8.G\	Spi-	4d\	me-	4a\	me-	4ccn\	me-	4d/	4d/
.	.	.	16g/	16b\	.	.	.	.	.	.	.	.	.	.
!	!	!	!	!LO:SIC:v:s=16cc\)	!	!	!	!	!	!	!	!	!	!
8G\L	.	8G\L	16a/)	16cc#\)	.	.	.	.	.	.	.	.	.	.
.	.	.	16f#|/JJ	16a|\JJ	16G\	-ri-	.	.	.	.	.	.	.	.
.	.	.	8qqf#/	8qqa/	.	.	.	.	.	.	.	.	.	.
8B\	6	8B\	4g/	4b/	4G\	-tus	4d\	-us	4g\	-us	4b\	-us	4r	4r
8A\J	.	8A\J	.	.	.	.	.	.	.	.	.	.	.	.
!LO:LB:g=original	!	!	!	!	!	!	!	!	!	!	!	!	!	!
=24	=24	=24	=24	=24	=24	=24	=24	=24	=24	=24	=24	=24	=24	=24
!	!	!	!	!	!LO:TX:a:t=1.:mod=	!	!	!	!	!	!	!	!LO:TX:a:t=1.:mod=	!LO:TX:a:t=2.:mod=
4G#X\	6	4G#X\	4r	8r	2r	.	4r	.	4r	.	8r	.	2r	1r
.	.	.	.	8e|/L	.	.	.	.	.	.	8e/	et	.	.
4r	.	4r	8e|/L	8g#X|/	.	.	8r	.	(8e\L	et	8g#X/	ex-	.	.
!	!	!	!	!	!	!	!	!	!	!	!	!LO:MO:mod=-sul-	!	!
.	.	.	8g#X|/J	8b|/J	.	.	8e\	-et	8g#X\J)	.	8b\	-ul-	.	.
!	!	!	!	!	!LO:LB:g=original	!	!	!	!	!	!	!	!	!
=25	=25	=25	=25	=25	=25	=25	=25	=25	=25	=25	=25	=25	=25	=25
8r	.	8r	8b|/L	8dd|\L	8r	.	4.e\	ex-	4.b\	ex-	4.dd\	-ta-	8r	.
8E\L	7 #	8E\L	(16b/L	(16dd\L	8E\	et	.	.	.	.	.	.	16ee\LL	.
.	.	.	16a/JJ)	16cc#X\JJ)	.	.	.	.	.	.	.	.	16ee\JJ	.
8G#X\	.	8G#X\	(16b/LL	(16dd\LL	8G#X\	ex-	.	.	.	.	.	.	8ee\L	.
.	.	.	16a/)	16cc#\)	.	.	.	.	.	.	.	.	.	.
!	!	!	!	!	!	!LO:MO:mod=-sul-	!	!LO:MO:mod=-sul-	!	!LO:MO:mod=-sul-	!	!	!	!
8B\J	.	8B\J	(16b/	(16dd\	8B\	-ul-	8e\	-ul	8b\	-ul-	8dd\	-vit	8ee\J	.
.	.	.	16a/JJ)	16cc#\JJ)	.	.	.	.	.	.	.	.	.	.
!	!	!LO:LB:g=original	!	!	!	!	!	!	!	!	!	!	!	!LO:LB:g=original
=26	=26	=26	=26	=26	=26	=26	=26	=26	=26	=26	=26	=26	=26	=26
!	!	!	!	!LO:TX:t=P:problem=mixed beam	!	!	!	!	!	!	!	!LO:MO:mod=spi-	!	!
8d\L	+4r 2	8d\L	8b\	(16e/LL	4d\	-ta-	8e\	-ta-	8b\	-ta-	8.dd\	Spi-	4ee\	8r
.	.	.	.	16dd\	.	.	.	.	.	.	.	.	.	.
8G#X\	.	8G#X\	4dd\	16bb\)	.	.	8e\	vit	8b\	vit	.	.	.	16ee\LL
.	.	.	.	16aa|\JJ	.	.	.	.	.	.	16dd\	-ri-	.	16ee\JJ
!	!	!	!	!	!	!	!	!LO:MO:mod=spi-	!	!LO:MO:mod=spi-	!	!	!	!
8E\	7 #	8E\	.	16gg#X\LL	4G#X\	vit	16e\	Spi-	16b\	Spi-	4dd\	-tus	4ee\	8ee\L
.	.	.	.	16ff#\	.	.	16e\	-ri-	16b\	-ri-	.	.	.	.
!LO:SIC:s=8G#J	!	!LO:SIC:s=8G#J	!	!	!	!	!	!	!	!	!	!	!	!
8G#X\J	.	8G#X\J	16cc#X\LL	16ee\	.	.	8e\	-tus	8b\	-tus	.	.	.	8ee\J
.	.	.	16b\JJ	16dd\JJ	.	.	.	.	.	.	.	.	.	.
=27	=27	=27	=27	=27	=27	=27	=27	=27	=27	=27	=27	=27	=27	=27
!	!	!	!	!	!	!LO:MO:mod=spi-	!	!	!	!	!	!	!	!
8r	.	8r	(16b/LL	(16dd\LL	8.A\	Spi-	4e\	me-	4b\	me-	4dd\	me-	4a/	4ee\
.	.	.	16a/	16cc#\	.	.	.	.	.	.	.	.	.	.
8A\L	9 4	8A\L	16b/)	16dd\)	.	.	.	.	.	.	.	.	.	.
.	.	.	16g#X|/JJ	16b|\JJ	16A\	-ri-	.	.	.	.	.	.	.	.
.	.	.	8qqg#/	8qqdd/	.	.	.	.	.	.	.	.	.	.
8E\	6\ 4	8E\	4a/	4cc#\	4A\	-tus	4e\	-us	4a\	-us	4cc#X\	-us	4r	4r
8D\J	.	8D\J	.	.	.	.	.	.	.	.	.	.	.	.
!	!	!	!	!LO:LB:g=original	!	!	!LO:LB:g=original	!	!	!	!LO:LB:g=original	!	!	!
=28	=28	=28	=28	=28	=28	=28	=28	=28	=28	=28	=28	=28	=28	=28
!	!	!	!	!	!LO:TX:a:t=1.:mod=	!	!	!	!LO:TX:a:t=1.:mod=	!	!	!	!LO:TX:a:t=1.:mod=	!LO:TX:a:t=1.:mod=
4C#/	6	4C#/	4r	8r	2r	.	4r	.	2r	.	8r	.	2r	2r
.	.	.	.	8a|\L	.	.	.	.	.	.	8a\	in	.	.
4r	.	4r	8a|\L	8cc#|\	.	.	(8A\L	in	.	.	8cc#\	De-	.	.
.	.	.	8cc#|\J	8ee|\J	.	.	8c#\J)	.	.	.	8ee\	-o	.	.
=29	=29	=29	=29	=29	=29	=29	=29	=29	=29	=29	=29	=29	=29	=29
!	!	!	!	!	!	!	!	!	!	!	!	!LO:MO:mod=sa-	!	!
8r	.	8r	8ee|\L	8gg|\L	8r	.	4.e\	De-	8r	.	4.gg\	Sa-	8r	8r
8AA/L	7	8AA/L	(16ee\L	(16gg\L	8AA/	in	.	.	8a\	in	.	.	8ee\L	8ccc#\L
.	.	.	16dd\JJ)	16ff#\JJ)	.	.	.	.	.	.	.	.	.	.
8C#/	.	8C#/	(16ee\LL	(16gg\LL	8C#/	De-	.	.	8a\	De-	.	.	8ee\	8ccc#\
.	.	.	16dd\)	16ff#\)	.	.	.	.	.	.	.	.	.	.
8E/J	.	8E/J	(16ee\	(16gg\	8E\	-o	8e\	-o	8a\	-o	8gg\	-lu-	8ee\J	8ccc#\J
.	.	.	16dd\JJ)	16ff#\JJ)	.	.	.	.	.	.	.	.	.	.
=30	=30	=30	=30	=30	=30	=30	=30	=30	=30	=30	=30	=30	=30	=30
*	*	*	*	*	*	*	*	*	*2\right	*	*	*	*	*
!	!	!	!	!	!	!LO:MO:mod=sa-	!	!LO:MO:mod=sa-	!	!LO:MO:mod=sa-	!	!	!	!
8G\L	2	8G\L	8cc#\	(16A/LL	4Gn\	Sa-	2e\	Sa-	[2a\	Sa-	4gg\	-ta-	2ee\	2ccc#\
.	.	.	.	16c#/	.	.	.	.	.	.	.	.	.	.
8C#\	.	8C#\	4ee\	16e/)	.	.	.	.	.	.	.	.	.	.
.	.	.	.	16a|/JJ	.	.	.	.	.	.	.	.	.	.
!	!	!	!	!	!LO:LB:g=original	!	!	!	!	!	!	!	!	!
8AA\	7	8AA\	.	16cc#\LL	4C#/	.	.	.	.	.	4gg\	-ri	.	.
.	.	.	.	16ee\	.	.	.	.	.	.	.	.	.	.
8C#\J	.	8C#\J	16gg\LL	16bb\	.	.	.	.	.	.	.	.	.	.
.	.	.	16ee\JJ	16gg\JJ	.	.	.	.	.	.	.	.	.	.
!	!	!	!LO:LB:g=original	!	!	!	!	!	!LO:LB:g=original	!	!	!	!	!
=31	=31	=31	=31	=31	=31	=31	=31	=31	=31	=31	=31	=31	=31	=31
!	!	!	!	!	!	!	!	!	!	!	!	!	!LO:TX:t=P:problem=mixed beam	!LO:TX:t=P:problem=mixed beam
8D\L	.	8D\L	16dd\LL	16ff#\LL	8D\L	.	8d\L	.	2a\_	.	(8ff#\L	Sa-	8ff#\L	8aa\L
.	.	.	16a\	16a\	.	.	.	.	.	.	.	.	.	.
8G\	4 2	8G\	16a\	16cc#\	8G\J	.	8e\J	.	.	.	8cc#\J)	.	16a/L	16a/L
.	.	.	16a\JJ	16a\JJ	.	.	.	.	.	.	.	.	16a/JJ	16a/JJ
8F#\	6	8F#\	16a\LL	16dd\LL	8F#\L	.	8f#\L	.	.	.	(8dd\L	.	8a/L	8a/L
.	.	.	16a\	16a\	.	.	.	.	.	.	.	.	.	.
8E\J	6	8E\J	16cc#\	16ee\	8E\J	.	8c#\J	.	.	.	8ee\J)	.	8a/J	8a/J
.	.	.	16cc#\JJ	16a\JJ	.	.	.	.	.	.	.	.	.	.
=32	=32	=32	=32	=32	=32	=32	=32	=32	=32	=32	=32	=32	=32	=32
8D\L	.	8D\L	16dd\LL	16ff#\LL	8D/	.	8d\	.	8a\]	.	8ff#\	.	8r	8r
.	.	.	16a\	16a\	.	.	.	.	.	.	.	.	.	.
8G\	4 2	8G\	16a\	16cc#\	8G\	-lu-	8e\	-lu-	8a\	-lu-	8cc#\	-lu-	16a/LL	16a/LL
.	.	.	16a\JJ	16a\JJ	.	.	.	.	.	.	.	.	16a/JJ	16a/JJ
8F#\	6	8F#\	16a\LL	16dd\LL	8F#\	-ta-	8f#\	-ta-	8a\	-ta-	8dd\	-ta-	8a/L	8a/L
.	.	.	16a\	16a\	.	.	.	.	.	.	.	.	.	.
8E\J	6	8E\J	16cc#\	16ee\	8E\	-ri	8c#\	-ri	8a\	-ri	8ee\	-ri	8a/J	8a/J
.	.	.	16cc#\JJ	16a\JJ	.	.	.	.	.	.	.	.	.	.
!LO:LB:g=original	!	!	!	!	!	!	!	!	!	!	!	!	!	!
=33	=33	=33	=33	=33	=33	=33	=33	=33	=33	=33	=33	=33	=33	=33
!	!	!	!	!	!	!	!LO:SIC:s=(4d	!	!	!	!LO:SIC:s=(4ff#	!	!	!
16D\LL	.	16D\LL	4dd\	4ff#\	(16D\LL	me-	4d\	me-	(4.a\	me-	4ff#\	me-	4dd\	4ff#\
16E\	.	16E\	.	.	16E\	.	.	.	.	.	.	.	.	.
16F#\	.	16F#\	.	.	16F#\	.	.	.	.	.	.	.	.	.
16G\JJ	.	16G\JJ	.	.	16G\JJ)	.	.	.	.	.	.	.	.	.
!LO:TX:t=P:problem=mixed beam	!	!LO:TX:t=P:problem=mixed beam	!	!	!LO:TX:t=P:problem=mixed beam	!	!	!	!	!	!LO:SIC:s=4eeT)	!	!	!
!	!	!	!	!	!	!	!LO:SIC:s=4c#t)	!	!	!	!	!	!	!
8A\L	.	8A\L	4cc#t\	4eeT\	(8A\L	.	4c#t\	.	.	.	4ee\	.	4a/	4eeT\
8AA/J	.	8AA/J	.	.	8AA/J)	.	.	.	8g\)	.	.	.	.	.
!	!	!LO:LB:g=original	!	!	!	!	!	!	!	!	!	!	!	!
=34	=34	=34	=34	=34	=34	=34	=34	=34	=34	=34	=34	=34	=34	=34
!LO:TX:t=P:problem=mixed beam	!	!LO:TX:t=P:problem=mixed beam	!LO:TX:t=P:problem=mixed beam	!LO:TX:t=P:problem=mixed beam	!	!	!	!	!	!	!	!LO:MO:mod=-o.	!	!LO:TX:t=P:problem=mixed beam
8DD/L	.	8DD/L	8dd\L	8dd\L	4D/	-o.-	4d\	-o.	4f#\	-o.	4dd\	-o	8f#/L	8dd\L
8D|\	.	8D|\	8d|/	8d|/	.	.	.	.	.	.	.	.	8d|/	8d|/
8F#|\	.	8F#|\	8f#|/	8f#|/	4r	.	4r	.	4r	.	4r	.	8f#|/	8f#|/
8A|\J	.	8A|\J	8a|/J	8a|/J	.	.	.	.	.	.	.	.	8a|/J	8a|/J
!	!	!	!	!LO:LB:g=original	!	!	!	!	!	!	!LO:LB:g=original	!	!	!
=35	=35	=35	=35	=35	=35	=35	=35	=35	=35	=35	=35	=35	=35	=35
!	!	!	!	!	!LO:TX:a:t=3.:mod=	!	!LO:TX:a:t=3.:mod=	!	!LO:TX:a:t=3.:mod=	!	!LO:TX:a:t=3.:mod=	!	!LO:TX:t=P:problem=mixed beam	!
8d|\L	.	8d|\L	8dd|\L	8dd|\L	1r	.	1r	.	1r	.	1r	.	8dd\L	8dd\L
(16d\L	.	(16d\L	(16dd\L	(16dd\L	.	.	.	.	.	.	.	.	16d/L	16dd\L
16c#\JJ)	.	16c#\JJ)	16cc#\JJ)	16cc#\JJ)	.	.	.	.	.	.	.	.	16d/JJ	16dd\JJ
(16d\LL	.	(16d\LL	(16dd\LL	(16dd\LL	.	.	.	.	.	.	.	.	8d/L	8dd\L
16c#\)	.	16c#\)	16cc#\)	16cc#\)	.	.	.	.	.	.	.	.	.	.
(16d\	.	(16d\	(16dd\	(16dd\	.	.	.	.	.	.	.	.	8d/J	8dd\J
16c#\JJ)	.	16c#\JJ)	16cc#\JJ)	16cc#\JJ)	.	.	.	.	.	.	.	.	.	.
=36	=36	=36	=36	=36	=36	=36	=36	=36	=36	=36	=36	=36	=36	=36
!	!	!	!LO:TX:t=P:problem=mixed beam	!LO:TX:t=P:problem=mixed beam	!	!	!	!	!	!	!	!	!	!LO:TX:t=P:problem=mixed beam
8d\L	.	8d\L	8dd\L	8dd\L	.	.	.	.	.	.	.	.	8d/L	8dd\L
!	!	!	!	!	!	!	!	!	!	!	!	!	!LO:SIC:s=8a|	!
8A|\	.	8A|\	8a|/	8a|/	.	.	.	.	.	.	.	.	8a/	8a|/
!	!	!	!	!	!	!	!	!	!	!	!	!	!LO:SIC:s=8f#|	!
8F#|\	.	8F#|\	8f#|/	8f#|/	.	.	.	.	.	.	.	.	8f#/	8f#|/
!	!	!	!	!	!	!	!	!	!	!	!	!	!LO:SIC:s=8aJ|	!
8A|\J	.	8A|\J	8a|/J	8a|/J	.	.	.	.	.	.	.	.	8a/J	8a|/J
!	!	!	!	!	!	!	!	!	!	!	!	!	!	!LO:LB:g=original
=37	=37	=37	=37	=37	=37	=37	=37	=37	=37	=37	=37	=37	=37	=37
!	!	!	!	!	!	!	!	!	!	!	!LO:TX:b:i:t=Volti.:mod=	!	!	!
4D/	.	4D/	4d/	4d/	2r	.	2r	.	2r	.	2r	.	4d/	4f#/
4r	.	4r	4r	4r	.	.	.	.	.	.	.	.	4r	4r
==	==	==	==	==	==	==	==	==	==	==	==	==	==	==
*-	*-	*-	*-	*-	*-	*-	*-	*-	*-	*-	*-	*-	*-	*-
!!!system-decoration: [(g1)][(g2)][(g3)][(g4)]
!!!system-decoration-mod: <s9>[(g1)][(g2)][(g3)]<s10>
!!!RDF**kern: > = above
!!!RDF**kern: | = vertical stroke
!!!ENC: Marta Opryszak
!!!END: 2022-04-12
!!!ENC: Andrzej Kubiczek
!!!END: 2022-04-29
!!!ENC-modern: Andrzej Kubiczek
!!!END-modern: 2022-09-26
!!!filter-modern: shed -k -e "s/([^a-gA-Gn#X-])[<>]/$1/g" | extract -k 1,3-$,2 | shed -e "s/:rj/:RJ/L" | shed -e "s/^custos:/Xcustos:/I" | shed -e "s/^(\d+[\/\\]right)/$1yy/I" | shed -e "s/TX(.*):t=P:/tx$1:t=P:/LG" | shed -e "s/(LO:DY.*):t=(.*$)/$1:T=$2/L; s/LO:DY(.*)(:a:)(.*)/LO:dy:$1$2$3/L; s/LO:DY(.*)(:b:)(.*)/LO:dy:$1$2$3/L; s/LO:DY(.*)(:rj:)(.*)/LO:dy:$1$2$3/L"| sic -sq | modori -m | autostem -r | tie -s | humtr -p | shed -e "s/yy//"
!!!YEC: Copyright 2022 Narodowy Instytut Fryderyka Chopina (https://polishscores.org)
!!!YEM: License CC-BY-4.0 (https://creativecommons.org/licenses/by/4.0)
